X:1
T: Old Noll's Jig
N:
C:
S:
A:
O:
R:
M:6/8
K:Em
I:speed 150
%W: A1
% voice 1 (1 lines, 38 notes)
K:Em
M:6/8
L:1/16
F2 |G2 F2 E2 E4 F2 G2 F2 E2 E4 e2 ^d4 e2 B4 e2 ^d4 e2 B4 F2 |G2 F2 E2 E4 F2 G2 F2 E2 E4 f2 g2 f2 e2 d3 ^c B2 B6B4 F2 |
%W: A2
% voice 1 (1 lines, 37 notes)
G2 F2 E2 E4 F2 G2 F2 E2 E4 e2 ^d4 e2 B4 e2 ^d4 e2 B4 F2 |G2 F2 E2 E4 F2 G2 F2 E2 E4 f2 g2 f2 e2 d3 ^c B2 B6B4 d2 |
%W: B1
% voice 1 (1 lines, 37 notes)
B2 c2 d2 G4 d2 B2 c2 d2 G4 g2 e2 f2 g2 c4 e2 c2 d2 e2 A4 a2 |f2 g2 a2 d4 f2 g2 a2 b2 c4 b2 c'2 b2 a2 a6 g6g4 b2 |
%W: B2
% voice 1 (1 lines, 41 notes)
g2 a2 b2 e2 f2 g2 f2 g2 a2 ^d2 e2 f2 e2 f2 g2 f2 g2 e2 ^d6 B4 b2 |c'2 b2 a2 b2 B2 b2 c'2 b2 a2 b2 B2 b2 c'2 b2 a2 g3 f e2 e6e4 ||
